src/assets/icons/sax/IconNegate.svg

<svg width="20" height="20" viewBox="0 0 24 24" fill="none" xmlns="http://www.w3.org/2000/svg">
<path d="M12 7.75V13" stroke="currentColor" stroke-width="1.5" stroke-linecap="round" stroke-linejoin="round"/>
<path d="M21.08 8.58003V15.42C21.08 16.54 20.48 17.58 19.51 18.15L13.57 21.58C12.6 22.14 11.4 22.14 10.42 21.58L4.47998 18.15C3.50998 17.59 2.90997 16.55 2.90997 15.42V8.58003C2.90997 7.46003 3.50998 6.41999 4.47998 5.84999L10.42 2.42C11.39 1.86 12.59 1.86 13.57 2.42L19.51 5.84999C20.48 6.41999 21.08 7.45003 21.08 8.58003Z" stroke="currentColor" stroke-width="1.5" stroke-linecap="round" stroke-linejoin="round"/>
<path d="M12 16.2V16.2999" stroke="currentColor" stroke-width="2" stroke-linecap="round" stroke-linejoin="round"/>
</svg>

<svg xmlns="http://www.w3.org/2000/svg" width="20" height="20" fill="none" viewBox="0 0 24 24">
  <path stroke="currentcolor" stroke-linecap="round" stroke-linejoin="round" stroke-width="1.5" d="M12 7.75V13m9.08-4.42v6.84c0 1.12-.6 2.16-1.57 2.73l-5.94 3.43c-.97.56-2.17.56-3.15 0l-5.94-3.43a3.2 3.2 0 0 1-1.57-2.73V8.58c0-1.12.6-2.16 1.57-2.73l5.94-3.43a3.2 3.2 0 0 1 3.15 0l5.94 3.43c.97.57 1.57 1.6 1.57 2.73"/>
  <path stroke="currentcolor" stroke-linecap="round" stroke-linejoin="round" stroke-width="2" d="M12 16.2v.1"/>
</svg>
